assets/images/afrikons/sad-thin-outline.svg

<svg viewBox="0 0 50 50" xmlns="http://www.w3.org/2000/svg"><path d="m0 0h50v50h-50z" fill="none"/><path d="m25 1.34a23.66 23.66 0 1 0 23.66 23.66 23.69 23.69 0 0 0 -23.66-23.66zm-13.9 17.66-.58-1.21.48-.19a17.18 17.18 0 0 1 7.44-1.67h.49v1.34h-.49a15.93 15.93 0 0 0 -6.87 1.54zm24.78 18.3-.36-.3a15.09 15.09 0 0 0 -21 0l-.36.34-.93-1 .35-.34a16.42 16.42 0 0 1 22.92 0l.35.34zm3-18.3-.44-.21a15.93 15.93 0 0 0 -6.87-1.54h-.47v-1.32h.49a17.18 17.18 0 0 1 7.41 1.67l.45.21z" fill="none"/><path d="m25 0a25 25 0 1 0 25 25 25 25 0 0 0 -25-25zm23.66 25a23.66 23.66 0 1 1 -23.66-23.66 23.69 23.69 0 0 1 23.66 23.66z"/><path d="m25 31.36a16.38 16.38 0 0 0 -11.46 4.64l-.35.34.93 1 .36-.34a15.09 15.09 0 0 1 21 0l.36.34.93-1-.31-.34a16.38 16.38 0 0 0 -11.46-4.64z"/><path d="m18.9 17.27v-1.34h-.49a17.18 17.18 0 0 0 -7.41 1.67l-.45.21.55 1.19.44-.21a15.93 15.93 0 0 1 6.87-1.54z"/><path d="m31.59 15.93h-.49v1.34h.49a15.93 15.93 0 0 1 6.87 1.54l.44.21.58-1.21-.48-.21a17.18 17.18 0 0 0 -7.41-1.67z"/></svg>

<svg xmlns="http://www.w3.org/2000/svg" viewBox="0 0 50 50"><defs><style>.cls-1{fill:none;}</style></defs><title>sad-thin-outline</title><g id="Layer_2" data-name="Layer 2"><g id="Layer_1-2" data-name="Layer 1"><rect class="cls-1" width="50" height="50"/><path class="cls-1" d="M25,1.34A23.66,23.66,0,1,0,48.66,25,23.69,23.69,0,0,0,25,1.34ZM11.1,19l-.58-1.21L11,17.6a17.18,17.18,0,0,1,7.44-1.67h.49v1.34h-.49a15.93,15.93,0,0,0-6.87,1.54Zm24.78,18.3L35.52,37a15.09,15.09,0,0,0-21,0l-.36.34-.93-1,.35-.34a16.42,16.42,0,0,1,22.92,0l.35.34Zm3-18.3-.44-.21a15.93,15.93,0,0,0-6.87-1.54H31.1V15.93h.49A17.18,17.18,0,0,1,39,17.6l.45.21Z"/><path d="M25,0A25,25,0,1,0,50,25,25,25,0,0,0,25,0ZM48.66,25A23.66,23.66,0,1,1,25,1.34,23.69,23.69,0,0,1,48.66,25Z"/><path d="M25,31.36A16.38,16.38,0,0,0,13.54,36l-.35.34.93,1,.36-.34a15.09,15.09,0,0,1,21,0l.36.34.93-1L36.46,36A16.38,16.38,0,0,0,25,31.36Z"/><path d="M18.9,17.27V15.93h-.49A17.18,17.18,0,0,0,11,17.6l-.45.21L11.1,19l.44-.21a15.93,15.93,0,0,1,6.87-1.54Z"/><path d="M31.59,15.93H31.1v1.34h.49a15.93,15.93,0,0,1,6.87,1.54l.44.21.58-1.21L39,17.6A17.18,17.18,0,0,0,31.59,15.93Z"/></g></g></svg>
